X:363
T:Country Waltz
M:3/4
L:1/8
K:D major
%
"D"D2 F2 A2 | "A"A3 G FE | "D"D2 F2 A2 | f2 d2 ef | "A"g2 e2 ag | 
"D"f2 d2 cd |[1"E"e>f e>d c>B | "A"A>B A>G F>E :| [2 "E"e2 B2 "A"c2 | "D"d4 A2 || 
f3 e dB | A3 G FE | D2 F2 Ad | B2 A2 f2 | "A"g3 f ed | 
c3 d cB | [1A2 c2 e2 | b2 a2 A2 :| [2A2 B2 c2 | "D"d4 z2 |]


